static/logos/headspace-wordmark-color.svg

<svg width="100" height="23" viewBox="0 0 100 23" fill="none" xmlns="http://www.w3.org/2000/svg">
<path d="M26.7031 4.68091H28.4053V9.41492C29.0967 8.40429 30.0541 7.87237 31.1712 7.87237C32.7137 7.87237 33.618 8.72344 33.618 10.4256V16.2234H31.9159V10.9043C31.9159 9.73407 31.4903 9.41492 30.6392 9.41492C30.1073 9.41492 29.6286 9.73407 29.1499 10.3192C28.6712 10.9575 28.4584 11.7553 28.4584 12.766V16.2234H26.7563L26.7031 4.68091Z" fill="#3A3938"/>
<path d="M42.1283 12.5532H36.3305C36.3305 13.8298 37.0751 14.8404 38.3517 14.8404C39.256 14.8404 40.107 14.3085 40.4794 13.4575L41.9156 14.0426C41.0645 15.6383 40.107 16.3298 38.2985 16.3298C35.5858 16.3298 34.4688 14.0426 34.4688 12.0745C34.4688 10.1064 35.5858 7.81915 38.2985 7.81915C40.9049 7.81915 42.0751 9.94681 42.0751 11.8085V12.5532H42.1283ZM36.3836 11.1702H40.373C40.2134 10.1596 39.5219 9.36171 38.4049 9.36171C37.2879 9.36171 36.5964 10.1064 36.3836 11.1702Z" fill="#3A3938"/>
<path d="M55.428 7.87233C55.8536 7.87233 56.2259 7.97871 56.7046 8.19148C57.1302 8.40425 57.4493 8.61701 57.6621 8.88297V4.62762H59.3642V16.1702H57.6621V15.2128C57.3429 15.7447 56.4387 16.2766 55.428 16.2766C53.0344 16.2766 51.7578 14.734 51.7578 12.0213C51.7578 9.46808 53.0344 7.87233 55.428 7.87233ZM53.5131 12.0745C53.5131 12.9255 53.7259 13.5638 54.0982 14.0957C54.4706 14.5745 55.0025 14.8404 55.5876 14.8404C56.2259 14.8404 56.7046 14.5745 57.077 14.0957C57.4493 13.617 57.6621 12.9255 57.6621 12.0745C57.6621 11.2234 57.4493 10.5851 57.077 10.1064C56.7046 9.62765 56.1727 9.36169 55.5876 9.36169C54.9493 9.36169 54.4706 9.62765 54.0982 10.1064C53.7259 10.5851 53.5131 11.2766 53.5131 12.0745Z" fill="#3A3938"/>
<path d="M65.796 9.14891L64.7322 10.1064C64.3599 9.62763 63.8812 9.36168 63.296 9.36168C62.8173 9.36168 62.4982 9.68083 62.4982 10.1595C62.4982 10.3191 62.5514 10.5319 62.7109 10.6383C62.9769 10.9042 63.2429 11.0638 63.9875 11.3298C64.5726 11.5425 64.7854 11.6489 65.2641 11.9149C65.9024 12.2872 66.2216 12.8191 66.2748 13.6702C66.2748 14.4149 66.0088 15 65.4769 15.5319C64.945 16.0106 64.2535 16.2766 63.4024 16.2766C61.8599 16.2766 60.7429 15.2659 60.2109 14.0957L61.6471 13.2978C62.0726 14.3085 62.7109 14.7872 63.4556 14.7872C64.2003 14.7872 64.5726 14.4149 64.5726 13.7234C64.5726 13.4574 64.4663 13.2447 64.1471 13.0851C63.9875 12.9787 63.8812 12.9255 63.7216 12.8723C63.4556 12.7659 62.8705 12.5532 62.6046 12.4468C61.4343 11.9681 60.8492 11.2234 60.8492 10.2127C60.8492 9.57444 61.1152 8.98934 61.5407 8.5638C62.0194 8.08508 62.6046 7.87231 63.3492 7.87231C64.3599 7.87231 65.2641 8.35104 65.796 9.14891Z" fill="#3A3938"/>
<path d="M71.2267 16.3298C70.2693 16.3298 69.4182 15.851 69.0459 15.2659V19.5213H67.3438V7.9787H69.0459V8.93614C69.365 8.40423 70.2693 7.87231 71.2799 7.87231C73.6735 7.87231 74.9501 9.41487 74.9501 12.1276C74.8969 14.6808 73.6203 16.3298 71.2267 16.3298ZM73.1416 12.0744C73.1416 11.2234 72.9289 10.5851 72.5565 10.1064C72.1842 9.62763 71.6523 9.36168 71.0672 9.36168C70.4289 9.36168 69.9501 9.62763 69.5778 10.1064C69.2055 10.5851 68.9927 11.2766 68.9927 12.0744C68.9927 12.9255 69.2055 13.5638 69.5778 14.0957C69.9501 14.5744 70.4821 14.8404 71.0672 14.8404C71.7055 14.8404 72.1842 14.5744 72.5565 14.0957C72.9289 13.617 73.1416 12.9255 73.1416 12.0744Z" fill="#3A3938"/>
<path d="M91.6499 14.0426C90.9584 15.5319 89.7882 16.3298 88.0861 16.3298C86.8627 16.3298 85.9052 15.9043 85.2138 15.1064C84.5223 14.3085 84.2031 13.2979 84.2031 12.0745C84.2031 10.8511 84.5223 9.84043 85.2138 9.04256C85.9052 8.24468 86.8627 7.81915 88.0861 7.81915C89.7882 7.81915 90.9584 8.56383 91.6499 10.1064L90.1606 10.7447C89.735 9.78724 89.0435 9.30851 88.1393 9.30851C86.7563 9.30851 86.0648 10.4255 86.0648 12.0213C86.0648 13.6702 86.7563 14.734 88.1393 14.734C89.0435 14.734 89.735 14.2553 90.1606 13.2979L91.6499 14.0426Z" fill="#3A3938"/>
<path d="M99.8393 12.5532H94.0414C94.0414 13.8298 94.7861 14.8404 96.0627 14.8404C96.9669 14.8404 97.818 14.3085 98.1903 13.4575L99.6265 14.0426C98.7754 15.6383 97.818 16.3298 96.0095 16.3298C93.2967 16.3298 92.1797 14.0426 92.1797 12.0745C92.1797 10.1064 93.2967 7.81915 96.0095 7.81915C98.6159 7.81915 99.7861 9.94681 99.7861 11.8085V12.5532H99.8393ZM94.0946 11.1702H98.0839C97.9244 10.1596 97.2329 9.36171 96.1159 9.36171C94.9988 9.36171 94.2542 10.1064 94.0946 11.1702Z" fill="#3A3938"/>
<path d="M46.8046 7.87231C47.2302 7.87231 47.6025 7.9787 48.0813 8.19146C48.5068 8.40423 48.8259 8.617 49.0387 8.88295V7.9787H50.7408V16.2234H49.3046L49.0387 15.2659C48.7195 15.7978 47.8153 16.3298 46.8046 16.3298C44.411 16.3298 43.1344 14.7872 43.1344 12.0744C43.0812 9.52125 44.3578 7.87231 46.8046 7.87231ZM44.8898 12.1276C44.8898 12.9787 45.1025 13.617 45.4748 14.1489C45.8472 14.6276 46.3791 14.8936 46.9643 14.8936C47.6025 14.8936 48.0812 14.6276 48.4536 14.1489C48.8259 13.6702 49.0387 12.9787 49.0387 12.1276C49.0387 11.2766 48.8259 10.6383 48.4536 10.1595C48.0812 9.68083 47.5494 9.41487 46.9643 9.41487C46.326 9.41487 45.8472 9.68083 45.4748 10.1595C45.1025 10.5851 44.8898 11.2766 44.8898 12.1276Z" fill="#3A3938"/>
<path d="M79.414 7.87231C79.8395 7.87231 80.2119 7.9787 80.6906 8.19146C81.1161 8.40423 81.4353 8.617 81.648 8.88295V7.9787H83.3502V16.2234H81.914L81.648 15.2659C81.3289 15.7978 80.4246 16.3298 79.414 16.3298C77.0204 16.3298 75.7438 14.7872 75.7438 12.0744C75.6906 9.52125 76.9672 7.87231 79.414 7.87231ZM77.4991 12.1276C77.4991 12.9787 77.7119 13.617 78.0842 14.1489C78.4566 14.6276 78.9885 14.8936 79.5736 14.8936C80.2119 14.8936 80.6906 14.6276 81.0629 14.1489C81.4353 13.6702 81.648 12.9787 81.648 12.1276C81.648 11.2766 81.4353 10.6383 81.0629 10.1595C80.6906 9.68083 80.1587 9.41487 79.5736 9.41487C78.9353 9.41487 78.4566 9.68083 78.0842 10.1595C77.6587 10.5851 77.4991 11.2766 77.4991 12.1276Z" fill="#3A3938"/>
<path d="M21.4362 11.0638C21.7021 14.5744 20.0532 16.5425 19.0957 17.9255C17.6064 19.5212 15.6383 21.7021 10.7979 21.8085C6.64894 21.968 4.62766 20.1595 2.92553 18.5638C0.691489 16.117 0.106383 14.6276 0 11.0638C0 8.82974 0.851064 6.64889 2.34043 4.68082C4.41489 1.75529 7.71277 0.744654 10.7979 0.53189C13.9894 0.425507 16.5426 2.02125 18.2979 3.77657C20.5319 6.17016 21.2234 8.19144 21.4362 11.0638Z" fill="#FF7E1D"/>
</svg>

<svg xmlns="http://www.w3.org/2000/svg" width="278.261" height="64" fill="none" viewBox="0 0 100 23"><path fill="#3A3938" d="M26.703 4.68h1.702v4.735c.692-1.01 1.65-1.543 2.766-1.543 1.543 0 2.447.851 2.447 2.554v5.797h-1.702v-5.319c0-1.17-.426-1.49-1.277-1.49-.532 0-1.01.32-1.49.905-.478.638-.69 1.436-.69 2.447v3.457h-1.703l-.053-11.542ZM42.128 12.553h-5.797c0 1.277.744 2.287 2.02 2.287.905 0 1.756-.531 2.128-1.383l1.437.586c-.851 1.595-1.809 2.287-3.617 2.287-2.713 0-3.83-2.287-3.83-4.255 0-1.969 1.117-4.256 3.83-4.256 2.606 0 3.776 2.128 3.776 3.99v.744h.053Zm-5.744-1.383h3.989c-.16-1.01-.851-1.808-1.968-1.808s-1.809.744-2.021 1.808ZM55.428 7.872c.426 0 .798.107 1.277.32.425.212.744.425.957.691V4.628h1.702V16.17h-1.702v-.957c-.32.532-1.223 1.064-2.234 1.064-2.394 0-3.67-1.543-3.67-4.256 0-2.553 1.276-4.149 3.67-4.149Zm-1.915 4.203c0 .85.213 1.489.585 2.02.373.48.904.745 1.49.745.638 0 1.117-.265 1.489-.744.372-.479.585-1.17.585-2.021 0-.852-.213-1.49-.585-1.969a1.864 1.864 0 0 0-1.49-.744c-.638 0-1.116.266-1.489.744-.372.48-.585 1.17-.585 1.969ZM65.796 9.149l-1.064.957c-.372-.478-.85-.744-1.436-.744-.479 0-.798.319-.798.797 0 .16.053.373.213.48.266.265.532.425 1.276.69.586.213.798.32 1.277.586.638.372.958.904 1.01 1.755 0 .745-.265 1.33-.797 1.862-.532.479-1.224.745-2.075.745-1.542 0-2.66-1.011-3.191-2.181l1.436-.798c.426 1.01 1.064 1.49 1.809 1.49.744 0 1.117-.373 1.117-1.065 0-.266-.107-.478-.426-.638a1.592 1.592 0 0 0-.425-.213c-.266-.106-.852-.319-1.117-.425-1.17-.479-1.756-1.224-1.756-2.234 0-.639.266-1.224.692-1.65.478-.478 1.064-.69 1.808-.69 1.01 0 1.915.478 2.447 1.276ZM71.227 16.33c-.958 0-1.809-.479-2.181-1.064v4.255h-1.702V7.98h1.702v.957c.319-.532 1.223-1.064 2.234-1.064 2.394 0 3.67 1.543 3.67 4.256-.053 2.553-1.33 4.202-3.723 4.202Zm1.915-4.256c0-.85-.213-1.489-.585-1.968a1.864 1.864 0 0 0-1.49-.744c-.638 0-1.117.266-1.49.744-.371.48-.584 1.17-.584 1.968 0 .851.213 1.49.585 2.022.372.478.904.744 1.49.744.638 0 1.116-.266 1.489-.744.372-.479.585-1.17.585-2.022ZM91.65 14.043c-.692 1.489-1.862 2.287-3.564 2.287-1.223 0-2.18-.426-2.872-1.224-.692-.797-1.01-1.808-1.01-3.031 0-1.224.318-2.235 1.01-3.032.691-.798 1.649-1.224 2.872-1.224 1.702 0 2.872.745 3.564 2.287l-1.49.639c-.425-.958-1.117-1.436-2.02-1.436-1.384 0-2.075 1.117-2.075 2.712 0 1.65.691 2.713 2.074 2.713.904 0 1.596-.479 2.022-1.436l1.489.745ZM99.84 12.553H94.04c0 1.277.745 2.287 2.022 2.287.904 0 1.755-.531 2.127-1.383l1.436.586c-.85 1.595-1.808 2.287-3.617 2.287-2.712 0-3.83-2.287-3.83-4.255 0-1.969 1.118-4.256 3.83-4.256 2.607 0 3.777 2.128 3.777 3.99v.744h.053Zm-5.745-1.383h3.989c-.16-1.01-.851-1.808-1.968-1.808s-1.862.744-2.021 1.808ZM46.805 7.872c.425 0 .797.107 1.276.32.426.212.745.425.958.69V7.98h1.702v8.244h-1.436l-.266-.957c-.32.532-1.224 1.064-2.234 1.064-2.394 0-3.67-1.543-3.67-4.256-.054-2.553 1.223-4.202 3.67-4.202Zm-1.915 4.256c0 .85.212 1.489.585 2.02.372.48.904.746 1.49.746.637 0 1.116-.266 1.489-.745.372-.479.585-1.17.585-2.021s-.213-1.49-.585-1.969a1.864 1.864 0 0 0-1.49-.744c-.638 0-1.117.266-1.49.745-.371.425-.584 1.117-.584 1.968ZM79.414 7.872c.425 0 .798.107 1.277.32.425.212.744.425.957.69V7.98h1.702v8.244h-1.436l-.266-.957c-.32.532-1.223 1.064-2.234 1.064-2.394 0-3.67-1.543-3.67-4.256-.053-2.553 1.223-4.202 3.67-4.202Zm-1.915 4.256c0 .85.213 1.489.585 2.02.373.48.904.746 1.49.746.638 0 1.117-.266 1.489-.745.372-.479.585-1.17.585-2.021s-.213-1.49-.585-1.969a1.864 1.864 0 0 0-1.49-.744c-.638 0-1.116.266-1.489.745-.425.425-.585 1.117-.585 1.968Z"/><path fill="#FF7E1D" d="M21.436 11.064c.266 3.51-1.383 5.479-2.34 6.861-1.49 1.596-3.458 3.777-8.298 3.883-4.15.16-6.17-1.648-7.872-3.244C.69 16.117.106 14.628 0 11.064 0 8.83.851 6.649 2.34 4.68 4.415 1.755 7.713.745 10.798.53c3.191-.105 5.745 1.49 7.5 3.246 2.234 2.393 2.925 4.414 3.138 7.287Z"/></svg>
